X:1
T:Title
%%score 1 2
L:1/8
Q:1/4=100
M:4/4
K:D
V:1 treble nm="Grand Piano, Soprano"
V:2 bass nm="Choir Pad, Bass"
V:1
 [DF]>[EG] [FA]2 [Fd]2 [FA]>[DF] | D>[DF] [CE]6 | [CE]>[CE] [CA]2 [CE]2 [CA]2- | [CA][CG] [DF]6 | %4
w: By~Charles~Clinton~Case * * * * *||||
 [DF]>[EG] [FA]2 [Fd]2 [FA]>[DF] | D>[DF] [CE]6 | [CA]>[CA] [DB]2 [DE]2 [Ec]2- | [Ec][DB] [CA]6 | %8
w: ||||
 [DF]>[EG] [FA]6 | [DB]>[Ec] [Fd]6 | [Fd]>[DF] [CE]2 [CA]2 [DA]>[DF] | [CE]>[CG] [DF]6 | %12
w: ||||
 [DF]>[EG] [FA]6 | [Fd]>[Ac] [GB]6 | [Gd]>[GB] [FA]2 [DF]2 [DF]2- | [DF][CE] D6- | D2 z2 z4 |] %17
w: |||||
V:2
 [D,A,]>[D,A,] [D,D]2 [D,A,]2 [D,D]>[D,A,] | [D,F,]>[D,A,] [A,,A,]6 | %2
 [A,,A,]>[A,,A,] [A,,A,]2 [A,,A,]2 [A,,A,]2- | [A,,A,][A,,A,] [D,A,]6 | %4
 [D,A,]>[D,A,] [D,D]2 [D,A,]2 [D,A,]>[D,A,] | [D,F,]>[D,A,] A,6 | A,>A, [E,^G,]2 [E,G,]2 [E,A,]2- | %7
 [E,A,][E,^G,] [A,,A,]6 | z4 [D,D]>[D,D] [D,D]2 | z4 [D,A,]>[D,A,] [D,A,]2 | %10
 [D,A,]>[D,A,] [A,,A,]2 [A,,A,]2 [A,,F,]>[A,,A,] | [A,,A,]>[A,,A,] [D,A,]2 [D,A,]>[D,A,] [D,A,]2 | %12
 z4 [D,D]>[D,D] [D,D]2 | z4 [G,D]>[G,D] [G,D]2 | [G,B,]>[G,D] [A,D]2 A,2 [A,,A,]2- | %15
 [A,,A,][A,,G,] [D,F,]6- | [D,F,]2 z2 z4 |] %17

